!!!OTL: 685b. Schwere Trennung.
!!!ODT: 1854
!!!ARE: Europa, Mitteleuropa, Deutschland, Brandenburg
!!!SCT: E0685C
!!!TXL: @@DE
!!!YEM: Copyright 1995, estate of Helmut Schaffrath.
**kern	**text
*ICvox	*
*M3/8	*
*k[f#]	*
*G:	*
!LO:TX:a:t=Aus dem Brandenburgiſchen, 1854.	!
{16gL	Jch
16aJ	.
=1	=1
8.b	muß
16cc	mich
16bL	um-
16aJ	.
=2	=2
16aL	-ſchau-
16gJ	.
8g}	-en
{8a	nach
=3	=3
8cc	Tint
8cc	und
8b	Pa-
=4	=4
4a}	-pier,
{16aL	meinem
16bJ	.
=5	=5
8cc	Schätʒchen
8cc	.
16ddL	ʒu
16ccJ	.
=6	=6
8b	ſchrei-
8dd}	-ben
{16a	wol
16a	.
=7	=7
8g	hin-
8b/	-ter
8a	die
=8	=8
4g}	Thür.
==	==
!!!AGN: Liebes - Lied, Leid, Klage, Trennung
!!!ONB: ESAC (Essen Associative Code) Database: ERK2
!!!AMT: simple triple
!!!AIN: vox
!!!EED: Helmut Schaffrath
!!!EEV: 1.0
!!!GTL: Liebeslieder [Neuere (aus dem 18. bis 19. Jahrh.) - Liebesleid] 678-740
!!!URL-scan: https://rosdok.uni-rostock.de/mcrviewer/recordIdentifier/rosdok_ppn745177662/iview2/phys_0488.iview2?x=193.8995864193107&y=1836.4161693325732&scale=0.7029437510502773&rotation=0&layout=singlePageLayout
!!!ENC: Anna Maria Matuszewska
!!!EEV: 2024/12/16
*-	*-
